public/svg/trust_to_scale/exdt.svg

<svg xmlns="http://www.w3.org/2000/svg" width="800" height="300" viewBox="0 0 800 300"><defs><linearGradient id="a" x1="0%" x2="100%" y1="0%" y2="0%"><stop offset="0%" style="stop-color:#999;stop-opacity:1"/><stop offset="100%" style="stop-color:#333;stop-opacity:1"/></linearGradient></defs><g fill="url(#a)"><path d="M50 100h110v35H95v30h55v35H95v30h70v35H50z"/><path d="m175 100 60 75-60 90h45l40-60 40 60h45l-60-90 60-75h-45l-40 55-40-55z"/><path d="M380 100h100c50 0 80 30 80 82s-30 83-80 83H380zm45 35v95h55c25 0 35-15 35-48 0-32-10-47-35-47z"/><path d="M580 100h170v35h-65v130h-40V135h-65z"/></g></svg>

<svg width="800" height="300" viewBox="0 0 800 300" xmlns="http://www.w3.org/2000/svg">
  <defs>
    <linearGradient id="logoGradient" x1="0%" y1="0%" x2="100%" y2="0%">
      <stop offset="0%" style="stop-color:#999999;stop-opacity:1" />
      <stop offset="100%" style="stop-color:#333333;stop-opacity:1" />
    </linearGradient>
  </defs>
  
  <g fill="url(#logoGradient)">
    <path d="M50 100 H160 V135 H95 V165 H150 V200 H95 V230 H165 V265 H50 V100 Z" />
    <path d="M175 100 L235 175 L175 265 H220 L260 205 L300 265 H345 L285 175 L345 100 H300 L260 155 L220 100 H175 Z" />
    
    <path d="M380 100 H480 C530 100 560 130 560 182 C560 234 530 265 480 265 H380 V100 Z M425 135 V230 H480 C505 230 515 215 515 182 C515 150 505 135 480 135 H425 Z" />
    
    <path d="M580 100 H750 V135 H685 V265 H645 V135 H580 V100 Z" />
  </g>
</svg>
